framework/flag-icon-css/cl.svg

<svg xmlns="http://www.w3.org/2000/svg" height="480" width="640" viewBox="0 0 640 480">
  <defs>
    <clipPath id="a">
      <path fill-opacity=".67" d="M0 0h682.67v512H0z"/>
    </clipPath>
  </defs>
  <g fill-rule="evenodd" clip-path="url(#a)" transform="scale(.9375)" fill-opacity=".996">
    <path fill="#fff" d="M255.99 0H768v256H255.99z"/>
    <path fill="#0039a6" d="M0 0h256v256H0z"/>
    <path d="M167.82 191.71l-39.653-29.737-39.458 30.03 14.674-48.8-39.386-30.133 48.728-.42L127.84 64l15.437 48.537 48.728.064-39.184 30.418 15 48.69z" fill="#fff"/>
    <path fill="#d52b1e" d="M0 256h768v256H0z"/>
  </g>
</svg>

<?xml version="1.0" encoding="UTF-8" standalone="no"?>
<svg
   xmlns:dc="http://purl.org/dc/elements/1.1/"
   xmlns:cc="http://creativecommons.org/ns#"
   xmlns:rdf="http://www.w3.org/1999/02/22-rdf-syntax-ns#"
   xmlns:svg="http://www.w3.org/2000/svg"
   xmlns="http://www.w3.org/2000/svg"
   xmlns:sodipodi="http://sodipodi.sourceforge.net/DTD/sodipodi-0.dtd"
   xmlns:inkscape="http://www.inkscape.org/namespaces/inkscape"
   height="16"
   width="21.333437"
   viewBox="0 0 21.333437 16"
   version="1.1"
   id="svg17"
   sodipodi:docname="cl.svg"
   inkscape:version="0.92.1 r">
  <metadata
     id="metadata21">
    <rdf:RDF>
      <cc:Work
         rdf:about="">
        <dc:format>image/svg+xml</dc:format>
        <dc:type
           rdf:resource="http://purl.org/dc/dcmitype/StillImage" />
        <dc:title></dc:title>
      </cc:Work>
    </rdf:RDF>
  </metadata>
  <sodipodi:namedview
     pagecolor="#ffffff"
     bordercolor="#666666"
     borderopacity="1"
     objecttolerance="10"
     gridtolerance="10"
     guidetolerance="10"
     inkscape:pageopacity="0"
     inkscape:pageshadow="2"
     inkscape:window-width="1920"
     inkscape:window-height="1024"
     id="namedview19"
     showgrid="false"
     fit-margin-top="0"
     fit-margin-left="0"
     fit-margin-right="0"
     fit-margin-bottom="0"
     inkscape:zoom="0.49166667"
     inkscape:cx="320"
     inkscape:cy="240"
     inkscape:window-x="0"
     inkscape:window-y="0"
     inkscape:window-maximized="1"
     inkscape:current-layer="svg17" />
  <defs
     id="defs5">
    <clipPath
       id="a">
      <path
         d="M 0,0 H 682.67 V 512 H 0 Z"
         id="path2"
         inkscape:connector-curvature="0"
         style="fill-opacity:0.67000002" />
    </clipPath>
  </defs>
  <g
     clip-path="url(#a)"
     transform="scale(0.03125)"
     id="g15"
     style="fill-opacity:0.99599998;fill-rule:evenodd">
    <path
       d="M 255.99,0 H 768 V 256 H 255.99 Z"
       id="path7"
       inkscape:connector-curvature="0"
       style="fill:#ffffff" />
    <path
       d="M 0,0 H 256 V 256 H 0 Z"
       id="path9"
       inkscape:connector-curvature="0"
       style="fill:#0039a6" />
    <path
       d="m 167.82,191.71 -39.653,-29.737 -39.458,30.03 14.674,-48.8 -39.386,-30.133 48.728,-0.42 15.115,-48.65 15.437,48.537 48.728,0.064 -39.184,30.418 15,48.69 z"
       id="path11"
       inkscape:connector-curvature="0"
       style="fill:#ffffff" />
    <path
       d="M 0,256 H 768 V 512 H 0 Z"
       id="path13"
       inkscape:connector-curvature="0"
       style="fill:#d52b1e" />
  </g>
</svg>
